icons/tokens/0x56d811088235F11C8920698a204A5010a788f4b3/logo.svg

<svg xmlns="http://www.w3.org/2000/svg" width="32" height="32" viewBox="0 0 32 32">
  <defs>
    <linearGradient id="bzrx-a" x1="80.75%" x2="13.5%" y1="80.75%" y2="13.5%">
      <stop offset="0%" stop-color="#003CDA"/>
      <stop offset="100%" stop-color="#33DFCC"/>
    </linearGradient>
  </defs>
  <g fill="none">
    <path fill="url(#bzrx-a)" d="M0,16 C0,7.16344889 7.16344889,0 16,0 C24.8365511,0 32,7.16344889 32,16 C32,24.8365511 24.8365511,32 16,32 C7.16344889,32 0,24.8365511 0,16 Z"/>
    <path fill="#FFF" d="M9.30616889 1.46312533C10.32224.994488889 11.39584.629251556 12.5134222.380903111L12.5134222 7.07100444 9.30616889 7.07100444 9.30616889 1.46312533zM.359722667 12.6089956C.601521778 11.4884622.960679111 10.4116267 1.42368711 9.39196444L17.8970311 9.39196444C20.3024356 9.39196444 22.2496711 11.3451733 22.2496711 13.7579022L22.2496711 18.0090311C22.2496711 20.42176 20.3024356 22.3750044 17.8970311 22.3750044L13.6588089 22.3750044C11.2534044 22.3750044 9.30616889 20.42176 9.30616889 18.0090311L9.30616889 14.9069156 12.5134222 14.9069156 12.5134222 17.9860267C12.5134222 18.6294756 13.01728 19.13504 13.6588089 19.13504L17.8970311 19.13504C18.5383467 19.13504 19.0424178 18.6294756 19.0424178 17.9860267L19.0424178 13.7579022C19.0424178 13.1145244 18.5383467 12.6089956 17.8970311 12.6089956L.359722667 12.6089956z"/>
  </g>
</svg>

<svg viewBox="0 0 32 32"><defs><linearGradient id="a" x1="80.75%" x2="13.5%" y1="80.75%" y2="13.5%"><stop offset="0%" stop-color="#003CDA"/><stop offset="100%" stop-color="#33DFCC"/></linearGradient></defs><g fill="none"><path fill="url(#a)" d="M0 16C0 7.163 7.163 0 16 0s16 7.163 16 16-7.163 16-16 16S0 24.837 0 16z"/><path fill="#FFF" d="M9.306 1.463A15.88 15.88 0 0112.513.381v6.69H9.306V1.463zM.36 12.61a15.88 15.88 0 011.064-3.217h16.473a4.357 4.357 0 014.353 4.366v4.251a4.357 4.357 0 01-4.353 4.366h-4.238a4.357 4.357 0 01-4.353-4.366v-3.102h3.207v3.079c0 .643.504 1.149 1.146 1.149h4.238c.641 0 1.145-.506 1.145-1.149v-4.228c0-.643-.504-1.149-1.145-1.149H.36z"/></g></svg>
